localPackages/DesignSystem/Sources/DesignSystem/Resources/Assets.xcassets/IconSet/ic-credit-card.imageset/ic-credit-card.svg

<svg width="24" height="24" viewBox="0 0 24 24" fill="none" xmlns="http://www.w3.org/2000/svg">
<g id="ic-credit-card">
<path id="Icon" fill-rule="evenodd" clip-rule="evenodd" d="M4.5 6H19.5C20.3284 6 21 6.67157 21 7.5V9H3V7.5C3 6.67157 3.67157 6 4.5 6ZM1.5 12V9V7.5C1.5 5.84315 2.84315 4.5 4.5 4.5H19.5C21.1569 4.5 22.5 5.84315 22.5 7.5V9V12V16.5C22.5 18.1569 21.1569 19.5 19.5 19.5H4.5C2.84315 19.5 1.5 18.1569 1.5 16.5V12ZM21 12V16.5C21 17.3284 20.3284 18 19.5 18H4.5C3.67157 18 3 17.3284 3 16.5V12H21Z" fill="#0F0F0F"/>
</g>
</svg>

<svg xmlns="http://www.w3.org/2000/svg" width="24" height="24" viewBox="0 0 24 24">
  <g class="ic-credit-card">
    <path fill-rule="evenodd" d="M4.5 6h15A1.5 1.5 0 0 1 21 7.5V9H3V7.5A1.5 1.5 0 0 1 4.5 6Zm-3 6V7.5a3 3 0 0 1 3-3h15a3 3 0 0 1 3 3v9a3 3 0 0 1-3 3h-15a3 3 0 0 1-3-3V12ZM21 12v4.5a1.5 1.5 0 0 1-1.5 1.5h-15A1.5 1.5 0 0 1 3 16.5V12h18Z" class="Icon"/>
  </g>
</svg>
